!!!OTL: Von dem heiligen Bischof St. Martin.
!!!ARE: Europa, Mitteleuropa, Deutschland
!!!SCT: A0616
!!!TXL: @@GMH
!!!YEM: Copyright 1995, estate of Helmut Schaffrath.
**kern	**text
*M3/2	*
*met(C|3)	*
*clefC1	*
*k[]	*
*C:ion	*
=1	=1
!LO:TX:a:t=jon.	!
!LO:N:vis=1	!
{2r	.
!LO:N:vis=1	!
2r	.
!LO:N:vis=1	!
2g	Sanct
=2	=2
!LO:N:vis=0	!
1g	Mar-
!LO:N:vis=1	!
2g	-tin
=3	=3
!LO:N:vis=0	!
1a	laßt
!LO:N:vis=1	!
2b	vns
=4	=4
!LO:N:vis=0.	!
1.cc	ſin-
=5	=5
!LO:N:vis=0	!
1cc}	-gen,
!LO:N:vis=1	!
{2ee	dem
=6	=6
!LO:N:vis=0	!
1dd	tew-
!LO:N:vis=1	!
2b	-ren
=7	=7
!LO:N:vis=1	!
2cc	Got-
!LO:N:vis=0	!
1a	-tes-
=8	=8
0.g	-mann!
=9	=9
!LO:N:vis=1	!
2r	.
!LO:N:vis=1	!
2r}	.
!LO:N:vis=1	!
{2g	Vil
=10	=10
!LO:N:vis=0	!
1g	Guts
!LO:N:vis=1	!
2a	er
=11	=11
!LO:N:vis=0	!
1b	vns
!LO:N:vis=1	!
2dd	thut
=12	=12
!LO:N:vis=0.	!
1.cc	brin-
=13	=13
!LO:N:vis=0	!
1g}	-gen,
!LO:N:vis=1	!
{2a	mit
=14	=14
!LO:N:vis=0	!
1g	Frew-
!LO:N:vis=1	!
2e	-den
=15	=15
!LO:N:vis=1	!
2f	fan-
!LO:N:vis=0	!
1d	-get
=16	=16
1.c;/ll}	an.
==	==
!!!GTL: Geistliche Volkslieder
!!!AGN: Romanze, Ballade, Lied, religioeses Lied
!! Corner 1631 No. 323.
!!!ONB: ESAC (Essen Associative Code) Database: ALTDEU
!!!AMT: simple triple
!!!AIN: vox
!!!EED: Helmut Schaffrath
!!!EEV: 1.0
!!!RDF**kern: l = terminal long
!!!AMD: Ionian
!!!URL-scan: https://rosdok.uni-rostock.de/mcrviewer/recordIdentifier/rosdok_ppn738218359/iview2/phys_0799.iview2?x=-1021.1722681204792&y=1738.8455792590976&scale=0.35534665417946304&rotation=0&layout=singlePageLayout&logicalDiv=log_0007
!!!ENC: Anna Maria Matuszewska
!!!EEV: 2024/25/03
*-	*-
